build/Karasa-Jaga/scalable/actions/send-to-symbolic.svg

<svg height="16" width="16" xmlns="http://www.w3.org/2000/svg"><path d="m12.4375.6875a2.4263806 2.4263806 0 0 0 -2.25 2.4375 2.4263806 2.4263806 0 0 0 0 .21875l-5.71875 2.9375a2.4263806 2.4263806 0 0 0 -4.09375 1.71875 2.4263806 2.4263806 0 0 0 3.6875 2.09375l6.125 3.125a2.4263806 2.4263806 0 0 0 4.84375-.09375 2.4263806 2.4263806 0 0 0 -4.5625-1.15625l-5.5625-2.75a2.4263806 2.4263806 0 0 0 .3125-1.21875 2.4263806 2.4263806 0 0 0 -.125-.75l5.5-2.75a2.4263806 2.4263806 0 0 0 4.4375-1.375 2.4263806 2.4263806 0 0 0 -2.59375-2.4375z" fill="#bebebe"/></svg>

<?xml version="1.0" encoding="UTF-8" standalone="no"?>
<!-- Created with Inkscape (http://www.inkscape.org/) -->

<svg
   xmlns:dc="http://purl.org/dc/elements/1.1/"
   xmlns:cc="http://creativecommons.org/ns#"
   xmlns:rdf="http://www.w3.org/1999/02/22-rdf-syntax-ns#"
   xmlns:svg="http://www.w3.org/2000/svg"
   xmlns="http://www.w3.org/2000/svg"
   xmlns:sodipodi="http://sodipodi.sourceforge.net/DTD/sodipodi-0.dtd"
   xmlns:inkscape="http://www.inkscape.org/namespaces/inkscape"
   id="svg7384"
   height="16"
   width="16"
   version="1.1"
   inkscape:version="0.48.3.1 r9886"
   sodipodi:docname="emblem-shared-symbolic.svg">
  <defs
     id="defs9850" />
  <sodipodi:namedview
     pagecolor="#ffffff"
     bordercolor="#666666"
     borderopacity="1"
     objecttolerance="10"
     gridtolerance="10"
     guidetolerance="10"
     inkscape:pageopacity="0"
     inkscape:pageshadow="2"
     inkscape:window-width="1366"
     inkscape:window-height="712"
     id="namedview9848"
     showgrid="false"
     inkscape:zoom="3.6875"
     inkscape:cx="-38.226136"
     inkscape:cy="11.06874"
     inkscape:window-x="0"
     inkscape:window-y="0"
     inkscape:window-maximized="1"
     inkscape:current-layer="svg7384" />
  <metadata
     id="metadata90">
    <rdf:RDF>
      <cc:Work
         rdf:about="">
        <dc:format>image/svg+xml</dc:format>
        <dc:type
           rdf:resource="http://purl.org/dc/dcmitype/StillImage" />
        <dc:title>Gnome Symbolic Icon Theme</dc:title>
      </cc:Work>
    </rdf:RDF>
  </metadata>
  <title
     id="title9167">Gnome Symbolic Icon Theme</title>
  <path
     style="color:#000000;fill:#bebebe;enable-background:new"
     d="M 12.4375 0.6875 A 2.4263806 2.4263806 0 0 0 10.1875 3.125 A 2.4263806 2.4263806 0 0 0 10.1875 3.34375 L 4.46875 6.28125 A 2.4263806 2.4263806 0 0 0 0.375 8 A 2.4263806 2.4263806 0 0 0 4.0625 10.09375 L 10.1875 13.21875 A 2.4263806 2.4263806 0 0 0 15.03125 13.125 A 2.4263806 2.4263806 0 0 0 10.46875 11.96875 L 4.90625 9.21875 A 2.4263806 2.4263806 0 0 0 5.21875 8 A 2.4263806 2.4263806 0 0 0 5.09375 7.25 L 10.59375 4.5 A 2.4263806 2.4263806 0 0 0 15.03125 3.125 A 2.4263806 2.4263806 0 0 0 12.4375 0.6875 z "
     id="path4791" />
</svg>
